static/assets/images/tokens/scrvusd.svg

<svg width="256" height="256" viewBox="0 0 256 256" fill="none" xmlns="http://www.w3.org/2000/svg">
<path fill-rule="evenodd" clip-rule="evenodd" d="M256 127.669C256 198.179 198.692 255.339 128 255.339C57.3076 255.339 0 198.179 0 127.669C0 57.1595 57.3076 0 128 0C198.692 0 256 57.1595 256 127.669Z" fill="#FFC300"/>
<path d="M133.513 77.352C142.787 80.7396 151.874 84.4736 160.64 89.0325C166.969 92.3238 173.124 96.1266 178.456 100.82C181.658 103.641 184.617 107.026 186.341 110.851C188.654 115.971 188.225 121.481 183.357 124.962C182.262 125.745 181.129 126.379 179.959 126.865C176.907 128.133 173.471 128.995 169.649 129.45C158.145 130.819 146.854 131.506 135.458 131.869C135.358 131.873 135.305 131.825 135.298 131.726C134.162 116.534 129.073 101.719 122.813 87.8006C122.226 86.4973 121.884 85.4213 121.788 84.5726C121.39 81.0365 122.551 77.6985 126.335 76.7856C127.52 76.5014 128.798 76.419 130.17 76.5381C131.15 76.6243 132.264 76.8956 133.513 77.352Z" fill="url(#paint0_linear_10061_726)"/>
<path d="M145.899 66.1814C173.95 78.6279 220.472 95.8938 216.641 122.71C214.326 138.915 199.269 145.397 161.736 167.359C137.652 181.452 140.899 180.258 122.377 198.78C132.63 187.535 137.521 154.424 135.356 133.491C135.355 133.468 135.358 133.445 135.366 133.423C135.374 133.401 135.386 133.381 135.402 133.364C135.417 133.346 135.436 133.333 135.457 133.323C135.478 133.313 135.501 133.308 135.524 133.307C142.989 133.074 150.792 132.641 158.932 132.007C163.115 131.68 167.258 131.229 171.362 130.654C179.285 129.54 189.593 126.015 189.123 116.155C188.789 109.168 183.484 103.078 178.255 98.7333C172.528 93.9709 165.671 89.8849 158.905 86.5083C151.328 82.7285 142.999 79.2172 133.919 75.9744C132.479 75.4612 131.26 75.1715 130.261 75.1056C128.291 74.9736 126.255 75.0726 124.457 75.9249C120.791 77.6572 119.688 81.7597 120.515 85.6284C120.697 86.4772 121.088 87.5532 121.689 88.8565C122.808 91.2854 123.986 94.0772 125.222 97.232C129.695 108.648 133.107 120.208 133.828 131.932C134.069 135.844 134.184 139.868 134.173 144.003C134.147 154.753 132.247 172.011 128.834 182.501C124.37 196.219 119.365 204.776 107.85 210.448C106.32 211.202 104.642 211.81 102.817 212.274C99.8201 213.037 96.9635 213.486 94.2469 213.621C87.2554 213.968 81.1959 212.202 76.0684 208.323C69.0484 203.011 64.6805 194.566 61.904 185.955C58.5529 175.558 57.0279 164.318 56.4947 153.333C55.944 141.977 56.2442 130.657 57.3953 119.372C57.5961 117.401 57.7978 115.551 58.0004 113.821C59.6414 99.8139 63.9263 85.7412 70.9961 73.4695C74.2284 67.8603 78.0906 62.7184 82.8701 58.5115C95.095 47.7494 117.849 53.735 145.899 66.1814Z" fill="#434343"/>
<path d="M91.5662 115.927C85.2848 118.464 81.6318 127.754 80.1279 133.818C77.126 145.906 77.2233 158.056 80.42 170.267C81.5446 174.57 83.2534 178.623 85.5463 182.426C88.0353 186.554 93.0745 192.557 98.4972 189.266C102.896 186.598 105.698 181.134 107.481 175.902C111.871 163.028 111.788 148.397 108.201 135.282C106.904 130.552 105.12 126.362 102.848 122.71C100.777 119.393 96.1302 114.083 91.5662 115.927Z" fill="url(#paint1_radial_10061_726)"/>
<defs>
<linearGradient id="paint0_linear_10061_726" x1="150.16" y1="92.9406" x2="126.967" y2="181.63" gradientUnits="userSpaceOnUse">
<stop stop-color="#434343"/>
<stop offset="1" stop-color="#FFC300"/>
</linearGradient>
<radialGradient id="paint1_radial_10061_726" cx="0" cy="0" r="1" gradientUnits="userSpaceOnUse" gradientTransform="translate(107.734 150.105) rotate(83.5157) scale(47.6576 38.8634)">
<stop stop-color="#FFC300"/>
<stop offset="1" stop-color="#434343"/>
</radialGradient>
</defs>
</svg>

<svg xmlns="http://www.w3.org/2000/svg" fill="none" viewBox="0 0 256 256"><path fill="#FFC300" fill-rule="evenodd" d="M256 127.669c0 70.51-57.308 127.67-128 127.67S0 198.179 0 127.669 57.308 0 128 0s128 57.16 128 127.669" clip-rule="evenodd"/><path fill="url(#paint0_linear_10061_726)" d="M133.513 77.352c9.274 3.388 18.361 7.122 27.127 11.68 6.329 3.292 12.484 7.095 17.816 11.788 3.202 2.821 6.161 6.206 7.885 10.031 2.313 5.12 1.884 10.63-2.984 14.111a17 17 0 0 1-3.398 1.903q-4.577 1.902-10.31 2.585c-11.504 1.369-22.795 2.056-34.191 2.419q-.15.006-.16-.143c-1.136-15.192-6.225-30.007-12.485-43.925q-.88-1.956-1.025-3.228c-.398-3.536.763-6.874 4.547-7.787q1.777-.427 3.835-.248 1.47.13 3.343.814"/><path fill="#434343" d="M145.899 66.181c28.051 12.447 74.573 29.713 70.742 56.529-2.315 16.205-17.372 22.687-54.905 44.649-24.084 14.093-20.837 12.899-39.359 31.421 10.253-11.245 15.144-44.356 12.979-65.289a.176.176 0 0 1 .168-.184 505 505 0 0 0 23.408-1.3q6.274-.49 12.43-1.353c7.923-1.114 18.231-4.639 17.761-14.499-.334-6.987-5.639-13.077-10.868-17.422-5.727-4.762-12.584-8.848-19.35-12.225q-11.366-5.669-24.986-10.534-2.16-.77-3.658-.868c-1.97-.132-4.006-.033-5.804.819-3.666 1.732-4.769 5.835-3.942 9.703q.273 1.274 1.174 3.228 1.679 3.644 3.533 8.376c4.473 11.416 7.885 22.976 8.606 34.7q.362 5.868.345 12.071c-.026 10.75-1.926 28.008-5.339 38.498-4.464 13.718-9.469 22.275-20.984 27.947q-2.295 1.13-5.033 1.826-4.495 1.144-8.57 1.347-10.488.52-18.179-5.298c-7.02-5.312-11.388-13.757-14.164-22.368-3.351-10.397-4.876-21.637-5.41-32.622q-.825-17.034.901-33.961.302-2.956.605-5.551c1.641-14.007 5.926-28.08 12.996-40.351 3.232-5.61 7.095-10.752 11.874-14.958 12.225-10.763 34.979-4.777 63.029 7.67"/><path fill="url(#paint1_radial_10061_726)" d="M91.566 115.927c-6.281 2.537-9.934 11.827-11.438 17.891q-4.503 18.132.292 36.449a46 46 0 0 0 5.126 12.159c2.49 4.128 7.528 10.131 12.951 6.84 4.399-2.668 7.201-8.132 8.984-13.364 4.39-12.874 4.307-27.505.72-40.62q-1.945-7.095-5.353-12.572c-2.071-3.317-6.718-8.627-11.282-6.783"/><defs><linearGradient id="paint0_linear_10061_726" x1="150.16" x2="126.967" y1="92.941" y2="181.63" gradientUnits="userSpaceOnUse"><stop stop-color="#434343"/><stop offset="1" stop-color="#FFC300"/></linearGradient><radialGradient id="paint1_radial_10061_726" cx="0" cy="0" r="1" gradientTransform="rotate(83.516 -30.199 135.389)scale(47.6576 38.8634)" gradientUnits="userSpaceOnUse"><stop stop-color="#FFC300"/><stop offset="1" stop-color="#434343"/></radialGradient></defs></svg>
